src/assets/icons/boxes.svg

<svg fill="none" viewBox="0 0 24 24"><path stroke="currentColor" stroke-linecap="round" stroke-linejoin="round" stroke-width="1.5" d="m12 4.5 3.6 2.08v4.16L12 12.82l-3.6-2.08V6.58z"/><path stroke="currentColor" stroke-linecap="round" stroke-linejoin="round" stroke-width="1.5" d="M8.56 8.58 12 10.66l3.44-2.08M12 10.66v2.16M4.75 12.9l3.6-2.08v4.16l-3.6 2.08zM4.91 14.9l3.44-2.08M8.35 12.82v2.16M19.25 12.9l-3.6-2.08v4.16l3.6 2.08zM19.09 14.9l-3.44-2.08M15.65 12.82v2.16"/></svg>

<svg width="24" height="24" viewBox="0 0 24 24" fill="none" xmlns="http://www.w3.org/2000/svg">
<path d="M12 4.5L15.6 6.58V10.74L12 12.82L8.4 10.74V6.58L12 4.5Z" stroke="#314158" stroke-width="1.5" stroke-linecap="round" stroke-linejoin="round"/>
<path d="M8.56 8.58L12 10.66L15.44 8.58" stroke="#314158" stroke-width="1.5" stroke-linecap="round" stroke-linejoin="round"/>
<path d="M12 10.66V12.82" stroke="#314158" stroke-width="1.5" stroke-linecap="round" stroke-linejoin="round"/>
<path d="M4.75 12.9L8.35 10.82V14.98L4.75 17.06V12.9Z" stroke="#314158" stroke-width="1.5" stroke-linecap="round" stroke-linejoin="round"/>
<path d="M4.91 14.9L8.35 12.82" stroke="#314158" stroke-width="1.5" stroke-linecap="round" stroke-linejoin="round"/>
<path d="M8.35 12.82V14.98" stroke="#314158" stroke-width="1.5" stroke-linecap="round" stroke-linejoin="round"/>
<path d="M19.25 12.9L15.65 10.82V14.98L19.25 17.06V12.9Z" stroke="#314158" stroke-width="1.5" stroke-linecap="round" stroke-linejoin="round"/>
<path d="M19.09 14.9L15.65 12.82" stroke="#314158" stroke-width="1.5" stroke-linecap="round" stroke-linejoin="round"/>
<path d="M15.65 12.82V14.98" stroke="#314158" stroke-width="1.5" stroke-linecap="round" stroke-linejoin="round"/>
</svg>
